X: 681
T: Ba tianqiao
L: 1/8
M: 2/4
K: Eb
G G/ e/ g G [I:setbarnb 1]| 
c/ e/ GB2 | 
c e c e | 
G/ B/ c/ e/B2 | 
z e c e | 
G> e c B | 
zE2F | 
G/ B/ G/ D/ F F | 
z B B/ G/ F | 
G> F D C/ C/ | 
E2F G | 
F E C/ E/ B, | 
C4 |]

@@@ Tune index: 9555
